fs/document_heart_20_filled.svg

<svg viewBox="0 0 20 20" fill="none" xmlns="http://www.w3.org/2000/svg" height="1em" width="1em">
  <path d="M10.0005 6.5V2H5.50049C4.67206 2 4.00049 2.67157 4.00049 3.5V9.00288C4.70215 9.02998 5.39782 9.2479 6.00302 9.65664C7.50062 8.64518 9.5522 8.80223 10.8778 10.1278C12.3815 11.6315 12.3815 14.0695 10.8778 15.5732L8.451 18H14.5005C15.3289 18 16.0005 17.3284 16.0005 16.5V8H11.5005C10.6721 8 10.0005 7.32843 10.0005 6.5ZM11.0005 6.5V2.25L15.7505 7H11.5005C11.2243 7 11.0005 6.77614 11.0005 6.5ZM6.13698 10.8349C7.25017 9.7217 9.05502 9.7217 10.1682 10.8349C11.2814 11.9481 11.2814 13.7529 10.1682 14.8661L6.35411 18.6802C6.15885 18.8755 5.84227 18.8755 5.64701 18.6802L1.83294 14.8661C0.719748 13.7529 0.719748 11.9481 1.83294 10.8349C2.94614 9.7217 4.75098 9.7217 5.86418 10.8349L6.00058 10.9713L6.13698 10.8349ZM10.1682 14.8661L9.81466 14.5126Z" fill="#212121"/>
</svg>

<svg viewBox="0 0 20 20" fill="none" xmlns="http://www.w3.org/2000/svg" height="1em" width="1em">
  <path d="M10 6.5V2H5.5A1.5 1.5 0 0 0 4 3.5v5.503a3.84 3.84 0 0 1 2.003.654 3.852 3.852 0 0 1 4.875 5.916L8.45 18h6.05a1.5 1.5 0 0 0 1.5-1.5V8h-4.5A1.5 1.5 0 0 1 10 6.5Zm1 0V2.25L15.75 7H11.5a.5.5 0 0 1-.5-.5Zm-4.863 4.335a2.85 2.85 0 1 1 4.031 4.031L6.354 18.68a.5.5 0 0 1-.707 0l-3.814-3.814a2.85 2.85 0 1 1 4.031-4.031l.137.136.136-.136Zm4.031 4.031-.353-.353Z" fill="#212121"/>
</svg>
